X:200
%%pagewidth 9in
%%vocalfont Baskerville10Pro 14
T:Franklin is fled away
M:3/4
L:1/8
K:G
%%score 1 2
V:1 clef-treble
V:2 clef-bass octave=-1
%%pos vol above
[V:1][B,DG]2[B,EG]2[EA]2|F3ED2 & D2x4|G2[EG]2[CFA]2|[B,GB]6|[DGB]2[EGB]2[EGc]2|
w:Frank-lin, my loy-al friend, O hone, O hone! In whom my
[V:2]G2E2A2 & x4C2|A3GF2 &D6|[GB]2G2A,2 & E2C2x2|G,6|G2E2C2|
[V:1][GB]3[FA][GB]2 & D6|[DFA]2[D=FA]2[B,E^G]2|[CEA]6||[DAd]2[FAd]2[DAc]2|[DGB]3[CA][B,G]2|A2A2G2 & E3CDE|
w:joys do end, O hone! O hone! Frank-lin, my heart's de-light, Since last he
[V:2]G,6|D2D2E2|A,6||^F2D2F2|G6|G6 & C3A,B,C|
[V:1]F3ED2|G2[FG]2[EG]2|d3cB2 & DEF2G2|[EGA]2[CFA]3[B,G]|[B,G]6||
w:took his flight, Bids now the world good night. O hone, O hone!
[V:2]A3GF2 & D6|G2G2G2 & E2D2C2|B,3A,G,2|C2D4|G6||

